X: 3
T: The Humours Of Tulla
R: reel
M: 4/4
L: 1/8
K: Dmaj
|:d2Ad BdAB|d2fd edBc|d2Ad BdAd|1 (3Bcd ef g2fe:|2 (3Bcd ef g2fg|||:af~f2 df~f2|af~f2 g2fg|af~f2 dfed|1 (3Bcd ef g2fg:|2 (3Bcd ef g2fe||


Tune 141	Setting 13464

